src/assets/icons/nintendo.svg

<svg
  xmlns:dc="http://purl.org/dc/elements/1.1/"
  xmlns:cc="http://creativecommons.org/ns#"
  xmlns:rdf="http://www.w3.org/1999/02/22-rdf-syntax-ns#"
  xmlns:svg="http://www.w3.org/2000/svg"
  xmlns="http://www.w3.org/2000/svg"
  version="1.1"
  width="406"
  height="100"
  viewBox="0 0 406 100"
  xml:space="preserve">
  <path
    d="M 53.126562,99.999974 C 21.30485,99.985561 0.0303,77.442175 0.0303,50.083 0.0303,22.73825 21.348112,-0.0862875 53.0833,2.25e-4 l 299.84787,0 c 31.72078,-0.0865 53.03859,22.738025 53.03859,50.082775 0,27.359175 -21.26735,49.902555 -53.08905,49.916974 l -299.754148,0 z"
    id="path452"
    style="fill: currentColor; fill-opacity: 1; fill-rule: nonzero; stroke: none" />
  <path
    d="m 53.220275,12.292025 c -25.2036,0.04325 -40.660262,16.898525 -40.660262,37.7261 0,20.834779 15.377362,37.805396 40.660262,37.718885 l 299.552305,0 c 25.30452,0.08651 40.66747,-16.884106 40.66747,-37.718885 0,-20.827575 -15.46388,-37.68285 -40.66747,-37.7261 l -299.552305,0 z"
    id="path454"
    style="fill: #ffffff; fill-opacity: 1; fill-rule: nonzero; stroke: none" />
  <path
    d="m 40.294063,26.371725 14.678075,0 20.294087,32.831 -0.0075,-32.831 14.5483,0 0,47.083725 -14.533887,0 -20.395013,-32.831 0,32.831 -14.58435,0 0,-47.083725 z"
    id="path456"
    style="fill: currentColor; fill-opacity: 1; fill-rule: nonzero; stroke: none" />
  <path
    d="m 168.92903,31.21635 14.17342,0 0,6.33695 7.66345,0 0,4.657187 -7.66345,0 0.0144,31.244963 -14.18784,0 0.007,-31.244963 -7.69229,0 0,-4.642775 7.69229,-0.01438 -0.007,-6.336949 z"
    id="path458"
    style="fill: currentColor; fill-opacity: 1; fill-rule: nonzero; stroke: none" />
  <path
    d="m 97.910538,42.1456 14.159002,0 0,31.317059 -14.159002,0 0,-31.317059 z"
    id="path460"
    style="fill: currentColor; fill-opacity: 1; fill-rule: nonzero; stroke: none" />
  <path
    d="m 97.874487,26.3573 14.195053,0 0,9.631587 -14.195053,0 0,-9.631587 z"
    id="path462"
    style="fill: currentColor; fill-opacity: 1; fill-rule: nonzero; stroke: none" />
  <path
    d="m 346.00306,40.018862 c -11.42668,0 -20.6906,7.8581 -20.6906,17.568988 0,9.703676 9.26392,17.576196 20.6906,17.576196 11.4339,0 20.6834,-7.87252 20.6834,-17.576196 0,-9.710888 -9.2495,-17.568988 -20.6834,-17.568988 m 5.68812,17.525738 c 0,0 -0.0144,4.729275 -0.0144,6.632525 0,4.98881 -2.94139,7.043451 -5.78905,7.043451 -2.84045,0 -5.80345,-2.054641 -5.80345,-7.043451 0,-1.90325 0.007,-6.755087 0.007,-6.755087 0,0 0.008,-4.621138 0.008,-6.517176 0,-4.974399 2.97742,-7.014625 5.78904,-7.014625 2.82604,0 5.78905,2.040226 5.78905,7.014625 0,1.896038 -0.007,5.40695 0.0144,6.65415 l 0,-0.01438 z"
    id="path464"
    style="fill: currentColor; fill-opacity: 1; fill-rule: nonzero; stroke: none" />
  <path
    d="m 306.8279,57.645525 0,-5.6016 c 0,-4.844625 -3.3451,-6.0702 -5.54393,-6.0702 -2.2565,0 -5.55113,1.225575 -5.55113,6.0702 l 0,5.572762 0,5.572763 c 0,4.85184 3.29464,6.099042 5.55113,6.099042 2.19883,0 5.54393,-1.247202 5.54393,-6.099042 l 0,-5.543925 z m -0.0937,-31.2738 13.96435,0 0,47.076515 -13.99319,0 c 0,0 -0.007,-1.521155 -0.007,-1.802316 -5.41416,3.388356 -11.52761,3.388356 -16.30015,1.18232 -1.27605,-0.605579 -9.67484,-4.63556 -9.67484,-15.535969 0,-8.261825 7.786,-17.287825 17.99433,-16.386675 3.35953,0.295588 5.74579,1.521163 8.01671,2.804413 l 0,-17.338288 z"
    id="path466"
    style="fill: currentColor; fill-opacity: 1; fill-rule: nonzero; stroke: none" />
  <path
    d="m 145.21054,40.70375 c 5.29881,-0.1514 16.0262,3.30905 15.95411,15.701788 -0.0144,2.213237 -0.007,17.042702 -0.007,17.042702 l -14.05808,0 0,-20.560827 c 0,-2.732313 -2.60975,-5.760213 -6.47392,-5.760213 -3.85695,0 -6.71904,3.0279 -6.71904,5.760213 0,1.333712 0.0144,20.560827 0.0144,20.560827 l -14.05086,0 -0.0144,-31.30264 14.06529,-0.01438 c 0,0 -0.0144,2.516037 0,3.294638 2.71069,-2.580913 6.61811,-4.5923 11.28971,-4.722063"
    id="path468"
    style="fill: currentColor; fill-opacity: 1; fill-rule: nonzero; stroke: none" />
  <path
    d="m 260.25604,40.70375 c 5.2916,-0.1514 16.03341,3.30905 15.96131,15.701788 -0.0144,2.213237 0,17.042702 0,17.042702 l -14.07249,0 0,-20.560827 c 0,-2.732313 -2.60975,-5.760213 -6.47392,-5.760213 -3.85695,0 -6.71183,3.0279 -6.71183,5.760213 0,1.333712 0.0144,20.560827 0.0144,20.560827 l -14.05087,0 0,-31.30264 14.05087,-0.01438 c 0,0 -0.0144,2.516037 0,3.294638 2.70347,-2.580913 6.6037,-4.5923 11.28251,-4.722063"
    id="path470"
    style="fill: currentColor; fill-opacity: 1; fill-rule: nonzero; stroke: none" />
  <path
    d="m 215.71717,62.497362 c 0,0 0.007,0.144188 0.007,1.90325 0,5.724155 -3.76323,7.000197 -5.85392,7.000197 -2.08348,0 -5.92603,-1.276042 -5.92603,-7.000197 0,-1.715812 0.0144,-6.459512 0.0144,-6.459512 0,0 26.66709,0.01438 26.66709,-0.01438 0,-9.703675 -9.37205,-17.742012 -20.88525,-17.742012 -11.5132,0 -20.842,7.8581 -20.842,17.5762 0,9.718091 9.3288,17.568985 20.842,17.568985 9.55227,0 17.62665,-5.450208 20.08501,-12.846911 l -14.10854,0.01438 z m -11.75831,-9.444137 c -0.0289,-2.739525 0.0289,-4.570675 0.93,-6.135088 1.10301,-1.932087 3.13603,-2.847662 4.9816,-2.862087 1.83836,0.01438 3.87138,0.93 4.96719,2.862087 0.90115,1.564413 0.95162,3.395563 0.92999,6.135088 l -11.80878,0 z"
    id="path472"
    style="fill: currentColor; fill-opacity: 1; fill-rule: nonzero; stroke: none" />
  <path
    d="m 369.60621,31.540762 c 1.37697,0 2.60975,-0.0865 2.60975,-1.744637 0,-1.326513 -1.20395,-1.564413 -2.3358,-1.564413 l -2.20604,0 0,3.30905 1.93209,0 z m -1.93208,6.02695 -1.62209,0 0,-10.712975 4.06602,0 c 2.53767,0 3.79208,0.93 3.79208,3.049525 0,1.917663 -1.20394,2.746725 -2.77556,2.948588 l 3.04231,4.714862 -1.81674,0 -2.83324,-4.649975 -1.85279,0 0,4.649975 z"
    id="path474"
    style="fill: currentColor; fill-opacity: 1; fill-rule: nonzero; stroke: none" />
  <path
    d="m 369.62784,39.961188 c 4.21021,0 7.52647,-3.294638 7.52647,-7.771588 0,-4.404863 -3.31626,-7.713912 -7.52647,-7.713912 -4.24627,0 -7.56973,3.30905 -7.56973,7.713912 0,4.47695 3.32346,7.771588 7.56973,7.771588 M 360.19811,32.1896 c 0,-5.334862 4.31835,-9.263912 9.42973,-9.263912 5.06811,0 9.39367,3.929049 9.39367,9.263912 0,5.378113 -4.32556,9.321588 -9.39367,9.321588 -5.11138,0 -9.42973,-3.943476 -9.42973,-9.321588"
    id="path476"
    style="fill: currentColor; fill-opacity: 1; fill-rule: nonzero; stroke: none" />
</svg>

<svg width="406" height="100" viewBox="0 0 406 100" fill="none" xmlns="http://www.w3.org/2000/svg">
<path d="M40.2941 26.3717H54.9721L75.2662 59.2027L75.2587 26.3717H89.807V73.4555H75.2731L54.8781 40.6245V73.4555H40.2938V26.3717H40.2941Z" fill="currentColor"/>
<path d="M168.929 31.2163H183.102V37.5533H190.766V42.2105H183.102L183.117 73.4554H168.929L168.936 42.2105H161.244V37.5677L168.936 37.5533L168.929 31.2164L168.929 31.2163Z" fill="currentColor"/>
<path d="M97.9105 42.1456H112.07V73.4627H97.9105V42.1456Z" fill="currentColor"/>
<path d="M97.8745 26.3573H112.07V35.9889H97.8745V26.3573Z" fill="currentColor"/>
<path d="M346.003 40.0189C334.576 40.0189 325.312 47.877 325.312 57.5878C325.312 67.2915 334.576 75.164 346.003 75.164C357.437 75.164 366.686 67.2915 366.686 57.5878C366.686 47.877 357.437 40.0189 346.003 40.0189ZM351.691 57.5446C351.691 57.5446 351.677 62.2739 351.677 64.1771C351.677 69.1659 348.735 71.2206 345.888 71.2206C343.047 71.2206 340.084 69.1659 340.084 64.1771C340.084 62.2739 340.091 57.422 340.091 57.422C340.091 57.422 340.099 52.8009 340.099 50.9049C340.099 45.9305 343.077 43.8902 345.888 43.8902C348.714 43.8902 351.677 45.9305 351.677 50.9049C351.677 52.8009 351.67 56.3118 351.692 57.559V57.5446L351.691 57.5446Z" fill="currentColor"/>
<path d="M306.828 57.6455V52.0439C306.828 47.1993 303.483 45.9737 301.284 45.9737C299.027 45.9737 295.733 47.1993 295.733 52.0439V57.6167V63.1895C295.733 68.0413 299.027 69.2885 301.284 69.2885C303.483 69.2885 306.828 68.0413 306.828 63.1895V57.6455ZM306.734 26.3717H320.699V73.4482H306.705C306.705 73.4482 306.698 71.9271 306.698 71.6459C301.284 75.0343 295.171 75.0343 290.398 72.8283C289.122 72.2227 280.723 68.1927 280.723 57.2923C280.723 49.0305 288.509 40.0045 298.718 40.9056C302.077 41.2012 304.463 42.4268 306.734 43.71V26.3717H306.734Z" fill="currentColor"/>
<path d="M145.211 40.7037C150.509 40.5523 161.237 44.0128 161.165 56.4055C161.15 58.6188 161.158 73.4482 161.158 73.4482H147.1V52.8874C147.1 50.1551 144.49 47.1272 140.626 47.1272C136.769 47.1272 133.907 50.1551 133.907 52.8874C133.907 54.2211 133.921 73.4482 133.921 73.4482H119.87L119.856 42.1456L133.921 42.1312C133.921 42.1312 133.907 44.6473 133.921 45.4259C136.632 42.8449 140.539 40.8336 145.211 40.7038" fill="currentColor"/>
<path d="M260.256 40.7037C265.548 40.5523 276.289 44.0128 276.217 56.4055C276.203 58.6188 276.217 73.4482 276.217 73.4482H262.145V52.8874C262.145 50.1551 259.535 47.1272 255.671 47.1272C251.814 47.1272 248.959 50.1551 248.959 52.8874C248.959 54.2211 248.974 73.4482 248.974 73.4482H234.923V42.1456L248.974 42.1312C248.974 42.1312 248.959 44.6473 248.974 45.4259C251.677 42.8449 255.577 40.8336 260.256 40.7038" fill="currentColor"/>
<path d="M215.717 62.4973C215.717 62.4973 215.724 62.6415 215.724 64.4006C215.724 70.1248 211.961 71.4008 209.87 71.4008C207.787 71.4008 203.944 70.1248 203.944 64.4006C203.944 62.6848 203.959 57.9411 203.959 57.9411C203.959 57.9411 230.626 57.9555 230.626 57.9267C230.626 48.223 221.254 40.1847 209.74 40.1847C198.227 40.1847 188.898 48.0428 188.898 57.7609C188.898 67.479 198.227 75.3299 209.74 75.3299C219.293 75.3299 227.367 69.8797 229.825 62.483L215.717 62.4973H215.717ZM203.959 53.0532C203.93 50.3137 203.988 48.4825 204.889 46.9181C205.992 44.986 208.025 44.0705 209.87 44.056C211.709 44.0704 213.742 44.986 214.838 46.9181C215.739 48.4825 215.789 50.3137 215.768 53.0532H203.959Z" fill="currentColor"/>
<path d="M369.606 31.5408C370.983 31.5408 372.216 31.4543 372.216 29.7961C372.216 28.4696 371.012 28.2317 369.88 28.2317H367.674V31.5408H369.606ZM367.674 37.5677H366.052V26.8547H370.118C372.656 26.8547 373.91 27.7847 373.91 29.9043C373.91 31.8219 372.706 32.651 371.135 32.8529L374.177 37.5677H372.36L369.527 32.9177H367.674V37.5677Z" fill="currentColor"/>
<path d="M369.628 39.9612C373.838 39.9612 377.154 36.6666 377.154 32.1896C377.154 27.7847 373.838 24.4757 369.628 24.4757C365.382 24.4757 362.058 27.7847 362.058 32.1896C362.058 36.6666 365.382 39.9612 369.628 39.9612ZM360.198 32.1896C360.198 26.8547 364.516 22.9257 369.628 22.9257C374.696 22.9257 379.022 26.8547 379.022 32.1896C379.022 37.5677 374.696 41.5112 369.628 41.5112C364.516 41.5112 360.198 37.5677 360.198 32.1896Z" fill="currentColor"/>
<rect x="6.5" y="6.5" width="393" height="87" rx="43.5" stroke="currentColor" stroke-width="13"/>
</svg>
